X:268
T:From Aberdeen
C:Henry Playford, 1698
S:Colin Hume's website,  colinhume.com  - chords can also be printed below the stave.
Q:1/2=120
%%stretchstaff 0
M:4/4
L:1/8
K:G
P:A
G2 | "G"B2d2 d2e2 | "D"d2cB A3d | "Em"B2G2 "D7"B2d2 | "G"g6 :|
P:B
|: b2 | "G"g2b2 g2b2 | "Am"a2gf e3f | "G"g2fe d2B2 | "D7"d6 f2 |\
"G"g3f edcB | "Am"ABcd e3g | "G7"d2cB A2G2 | "C"c6d2 | "Am"e2 fg "D7"fgaf | "G"g6 :|

